aave.svg

<svg width="167" height="68" viewBox="0 0 167 68" fill="none" xmlns="http://www.w3.org/2000/svg">
<path d="M93.2238 44.2371L85.1523 24.6524C85.0885 24.474 85.0546 24.2863 85.052 24.0968C85.0363 23.6967 85.1775 23.3063 85.4455 23.0088C85.5841 22.8667 85.7516 22.756 85.9366 22.6841C86.1216 22.6122 86.3199 22.5808 86.5181 22.5921C86.8179 22.5963 87.1091 22.6934 87.3515 22.8699C87.6038 23.0589 87.801 23.312 87.9225 23.6029L95.6005 42.7632L103.279 23.6029C103.402 23.3111 103.602 23.0579 103.857 22.8699C104.1 22.6934 104.391 22.5963 104.691 22.5921C104.888 22.582 105.084 22.6139 105.268 22.6857C105.452 22.7576 105.618 22.8677 105.756 23.0088C106.026 23.3051 106.17 23.6956 106.157 24.0968C106.154 24.2863 106.12 24.474 106.057 24.6524L97.985 44.2371C97.8468 44.6673 97.5776 45.0436 97.2151 45.3133C96.8527 45.5831 96.415 45.7329 95.9632 45.7418H95.2456C94.7938 45.7329 94.3561 45.5831 93.9936 45.3133C93.6312 45.0436 93.362 44.6673 93.2238 44.2371Z" fill="white"/>
<path d="M109.593 45.1404C109.456 45.0027 109.349 44.8387 109.277 44.6583C109.205 44.478 109.171 44.2849 109.176 44.0909V24.2593C109.171 24.0607 109.206 23.863 109.277 23.6777C109.349 23.4923 109.456 23.3228 109.593 23.179C109.727 23.0367 109.89 22.9246 110.071 22.8501C110.252 22.7756 110.447 22.7404 110.642 22.7468H123.761C123.945 22.7423 124.129 22.7772 124.299 22.849C124.47 22.9208 124.623 23.0281 124.748 23.1635C124.882 23.2904 124.988 23.4437 125.06 23.6137C125.132 23.7837 125.168 23.9668 125.165 24.1513C125.17 24.3339 125.136 24.5154 125.064 24.6833C124.992 24.8512 124.884 25.0015 124.748 25.1235C124.617 25.2531 124.462 25.3553 124.291 25.4242C124.12 25.4931 123.937 25.5273 123.753 25.5248H112.155V32.7475H122.588C122.772 32.743 122.956 32.7779 123.126 32.8497C123.297 32.9215 123.45 33.0287 123.575 33.1642C123.708 33.2923 123.813 33.4458 123.885 33.6155C123.956 33.7852 123.993 33.9677 123.992 34.152C123.997 34.3346 123.963 34.5161 123.891 34.684C123.819 34.8519 123.711 35.0022 123.575 35.1242C123.445 35.2529 123.291 35.3546 123.122 35.4234C122.952 35.4923 122.771 35.527 122.588 35.5255H112.155V42.7791H123.753C123.939 42.7735 124.124 42.8078 124.296 42.8797C124.467 42.9515 124.622 43.0593 124.748 43.1958C124.883 43.3236 124.99 43.4781 125.062 43.6495C125.134 43.8209 125.169 44.0054 125.165 44.1912C125.17 44.3738 125.136 44.5554 125.064 44.7233C124.992 44.8912 124.884 45.0414 124.748 45.1635C124.617 45.2917 124.461 45.3925 124.29 45.46C124.119 45.5276 123.937 45.5606 123.753 45.5571H110.642C110.447 45.5713 110.252 45.5411 110.07 45.469C109.888 45.3968 109.725 45.2845 109.593 45.1404Z" fill="white"/>
<path d="M86.9821 43.6812L78.9028 24.0965C78.7651 23.6676 78.4971 23.2922 78.1362 23.0225C77.7752 22.7528 77.3392 22.6023 76.8888 22.5918H76.1789C75.7271 22.6007 75.2894 22.7505 74.927 23.0203C74.5645 23.2901 74.2953 23.6663 74.1571 24.0965L70.6461 32.6311H67.9839C67.6011 32.6351 67.2352 32.7895 66.9653 33.0609C66.6953 33.3323 66.5429 33.699 66.5409 34.0818V34.0972C66.5429 34.48 66.6953 34.8467 66.9653 35.1181C67.2352 35.3895 67.6011 35.5439 67.9839 35.548H69.4114L66.0624 43.6812C65.9986 43.8596 65.9647 44.0474 65.9621 44.2368C65.9464 44.637 66.0876 45.0274 66.3557 45.3249C66.4943 45.4669 66.6618 45.5776 66.8468 45.6495C67.0318 45.7214 67.2301 45.7528 67.4283 45.7416C67.7281 45.7373 68.0193 45.6403 68.2617 45.4638C68.514 45.2747 68.7112 45.0216 68.8327 44.7307L72.5289 35.548H75.0677C75.4505 35.5439 75.8163 35.3895 76.0863 35.1181C76.3563 34.8467 76.5087 34.48 76.5107 34.0972V34.0587C76.5087 33.6758 76.3563 33.3092 76.0863 33.0378C75.8163 32.7664 75.4505 32.612 75.0677 32.6079H73.6941L76.5338 25.5704L84.2119 44.7307C84.3334 45.0216 84.5305 45.2747 84.7829 45.4638C85.0253 45.6403 85.3164 45.7373 85.6163 45.7416C85.8157 45.7539 86.0155 45.7231 86.2019 45.6512C86.3884 45.5792 86.5571 45.468 86.6966 45.3249C86.9618 45.0262 87.1002 44.6359 87.0824 44.2368C87.0921 44.0471 87.0606 43.8575 86.9898 43.6812H86.9821Z" fill="white"/>
<path d="M62.8609 43.6822L54.7894 24.0975C54.6507 23.6661 54.3804 23.2889 54.0164 23.019C53.6524 22.7491 53.213 22.6001 52.7599 22.5928H52.05C51.5982 22.6017 51.1605 22.7515 50.798 23.0213C50.4356 23.291 50.1664 23.6673 50.0282 24.0975L46.5172 32.6321H43.855C43.4722 32.6361 43.1063 32.7905 42.8364 33.0619C42.5664 33.3333 42.414 33.7 42.412 34.0828V34.0982C42.414 34.481 42.5664 34.8477 42.8364 35.1191C43.1063 35.3905 43.4722 35.5449 43.855 35.5489H45.2825L41.9335 43.6822C41.8697 43.8606 41.8358 44.0483 41.8332 44.2378C41.8175 44.6379 41.9587 45.0284 42.2268 45.3258C42.3654 45.4679 42.5329 45.5786 42.7179 45.6505C42.9029 45.7224 43.1012 45.7538 43.2994 45.7425C43.5992 45.7383 43.8903 45.6413 44.1328 45.4647C44.3851 45.2757 44.5822 45.0226 44.7038 44.7317L48.4 35.5489H50.9542C51.3384 35.5469 51.7062 35.3934 51.9778 35.1218C52.2494 34.8502 52.4029 34.4823 52.4049 34.0982V34.0596C52.4029 33.6755 52.2494 33.3077 51.9778 33.0361C51.7062 32.7644 51.3384 32.6109 50.9542 32.6089H49.5884L52.4049 25.5714L60.0829 44.7317C60.2045 45.0226 60.4016 45.2757 60.654 45.4647C60.8964 45.6413 61.1875 45.7383 61.4874 45.7425C61.6868 45.7549 61.8866 45.724 62.073 45.6521C62.2595 45.5802 62.4282 45.4689 62.5677 45.3258C62.8329 45.0272 62.9713 44.6369 62.9535 44.2378C62.9632 44.0481 62.9316 43.8585 62.8609 43.6822Z" fill="white"/>
</svg>

<svg xmlns="http://www.w3.org/2000/svg" width="167" height="68" fill="#000"><path d="M93.224 44.237l-8.071-19.585a1.72 1.72 0 0 1-.1-.556c-.016-.4.125-.791.393-1.088a1.39 1.39 0 0 1 1.073-.417 1.45 1.45 0 0 1 .833.278c.252.189.45.442.571.733l7.678 19.16 7.679-19.16a1.76 1.76 0 0 1 .578-.733 1.45 1.45 0 0 1 .834-.278 1.39 1.39 0 0 1 1.065.417 1.54 1.54 0 0 1 .401 1.088 1.75 1.75 0 0 1-.1.556l-8.072 19.585a2.17 2.17 0 0 1-2.022 1.505h-.718a2.17 2.17 0 0 1-2.022-1.505zm16.369.903a1.44 1.44 0 0 1-.316-.482 1.43 1.43 0 0 1-.101-.567V24.259a1.52 1.52 0 0 1 .417-1.08c.134-.142.297-.254.478-.329a1.38 1.38 0 0 1 .571-.103h13.119a1.29 1.29 0 0 1 .987.416 1.34 1.34 0 0 1 .312.45c.072.17.108.353.105.538a1.26 1.26 0 0 1-.417.972 1.38 1.38 0 0 1-.457.301 1.39 1.39 0 0 1-.538.101h-11.598v7.223h10.433a1.29 1.29 0 0 1 .987.417 1.37 1.37 0 0 1 .417.988 1.26 1.26 0 0 1-.417.972 1.39 1.39 0 0 1-.987.401h-10.433v7.254h11.598a1.3 1.3 0 0 1 .995.417 1.34 1.34 0 0 1 .314.454c.072.171.107.356.103.542a1.26 1.26 0 0 1-.417.972 1.38 1.38 0 0 1-.458.297 1.37 1.37 0 0 1-.537.097h-13.111a1.3 1.3 0 0 1-.572-.088 1.28 1.28 0 0 1-.477-.329zm-22.611-1.459l-8.079-19.585a2.17 2.17 0 0 0-2.014-1.505h-.71a2.17 2.17 0 0 0-2.022 1.505l-3.511 8.535h-2.662a1.46 1.46 0 0 0-1.443 1.451v.015a1.46 1.46 0 0 0 1.443 1.451h1.427l-3.349 8.133a1.72 1.72 0 0 0-.1.556 1.53 1.53 0 0 0 .394 1.088 1.39 1.39 0 0 0 1.073.417 1.45 1.45 0 0 0 .833-.278 1.77 1.77 0 0 0 .571-.733l3.696-9.183h2.539a1.46 1.46 0 0 0 1.443-1.451v-.038a1.46 1.46 0 0 0-1.443-1.451h-1.374l2.84-7.038 7.678 19.16c.121.291.319.544.571.733a1.45 1.45 0 0 0 .833.278 1.39 1.39 0 0 0 1.08-.417c.265-.299.404-.689.386-1.088a1.31 1.31 0 0 0-.093-.556h-.008zm-24.121.001L54.79 24.097a2.17 2.17 0 0 0-2.029-1.505h-.71a2.17 2.17 0 0 0-2.022 1.505l-3.511 8.535h-2.662a1.46 1.46 0 0 0-1.443 1.451v.015a1.46 1.46 0 0 0 1.443 1.451h1.428l-3.349 8.133a1.72 1.72 0 0 0-.1.556c-.016.4.126.791.394 1.088a1.39 1.39 0 0 0 1.072.417 1.45 1.45 0 0 0 .833-.278c.252-.189.449-.442.571-.733l3.696-9.183h2.554a1.46 1.46 0 0 0 1.451-1.451v-.039a1.46 1.46 0 0 0-1.451-1.451h-1.366l2.816-7.037 7.678 19.16c.122.291.319.544.571.733a1.45 1.45 0 0 0 .833.278 1.39 1.39 0 0 0 1.08-.417c.265-.299.404-.689.386-1.088.01-.19-.022-.379-.093-.556z"/></svg>
